X:63
T:Reel 63
M:4/4
K:Gmaj
L:1/8
dc|BGAG BGAF|G2Bd gedc|BGAG BGAG|EAAG ABGA|BGAG BGAF|G2Bd gedc|BGAG BGAG|EAAB G2|ga|bgag bgag|egdg egdg|b2ag bgag|egdg e2dg|bgag bgag|egdg egdg|bgaf gfed|edfa g2dc|
